X: 29303
T: New Steamboat, The
R: reel
M: 4/4
K: Adorian
A2eA BAeA|~A2eA dBGB|A2eA BAeA|1 BEEF GBdB:|2 BEEF G2Bd||
eaag edBd|efgd BGBd|eaaf gfed|BEEF G2Bd|
ea~a2 b2ag|egfa gedB|AGAB cBcd|(3efg fa gedB||

